!!!!SEGMENT: pl-sa--556-a-ix-36--001_danielski-florian--polonaise-pour-le-piano-forte-a-quatre-mains.krn
!!!cenid: 18xx:324
!!!COM: Danielski, Florian
!!!COM-rismID: pe30085945
!!!CDT: 1795-~1860
!!!CNT:
!!!OTL: Polonaise pour le piano forte a quatre mains
!!!PDT:
!!!AGN: Sacred
!!!SMS-siglum: PL-SA
!!!SMS-shelfmark: 556/A IX 36
!!!SMS-shelfwork: 001 W
!!!SMS-variant:
!!!SMS-altvar:
!!!NIFC-rismSourceID: 1001065414
!!!NIFC-islandoraID:
!!!URL-pdf-islandora:
!!!URL-scan: https://bc.bdsandomierz.pl/dlibra/publication/1312/edition/1280/content @EN{Scan in the Sandomierz Diocese Digital Library} @PL{Skany w portalu Cyfrowa Biblioteka Diecezjalna w Sandomierzu}
!!!ONB-nifc:
!!!AIN: 1 empty 3 piano
!!!key:
**kern	**kern	**dynam	**kern	**dynam	**kern	**dynam
*part4	*part3	*part3	*part2	*part2	*part1	*part1
*staff4	*staff3	*	*staff2	*	*staff1	*
*Ipiano	*Ipiano	*	*Ipiano	*	*Iempty	*
*I"Piano	*I"Piano Secondo	*	*I"Piano	*	*I"Primo	*
*I'P-no	*I'P-no	*	*I'P-no	*	*I'P-no	*
*clefF4	*clefF4	*	*clefG2	*	*clefG2	*
*k[b-e-]	*k[b-e-]	*	*k[b-e-]	*	*k[b-e-]	*
*E-:	*E-:	*	*E-:	*	*E-:	*
*M3/4	*M3/4	*	*M3/4	*	*M3/4	*
=1	=1	=1	=1	=1	=1	=1
*	*all\right	*	*all\right	*	*all\right	*
!	!LO:TX:a:i:t=Polonaiſ	!	!	!	!LO:TX:a:i:t=Polonaiſ	!LO:DY:t=f.
8.BB-/L	8.B-\L	ff	8.f/L	.	8.b-\L	f
16BB-/Jk	16B-\Jk	.	16f/Jk	.	16b-\Jk	.
8.AA/L	8.cL 8.F\	.	8.f/L	.	8.ff\L	.
16AA/Jk	16cJk 16F\	.	16f/Jk	.	16ff\Jk	.
!	!LO:N:vis=8	!	!	!	!	!
8.GG/L	8.dL 8.B-\	.	8.b-/L	.	8.bb-\L	.
16GG/Jk	16dJk 16B-\	.	16b-/Jk	.	16bb-\Jk	.
=2	=2	=2	=2	=2	=2	=2
8FL 8FF/	8B-\L	<	8d/L	.	8dd\L	.
8FJ 8FF/	8B-\J	.	8d/J	.	8cc\J	.
4.E- 4.EE-/	4.B-\	.	4.g/	.	4.gg\	<
8BBn 8BBBn/	8d 8G\	[	8f/	.	8ff\	[
=3	=3	=3	=3	=3	=3	=3
8.CC/L	8.C/L	.	8.g/L	.	8.ee-\L	.
16DD/Jk	16D/Jk	.	16g/Jk	.	16dd\Jk	.
8EE-/L	8E-/L	.	8g/L	.	8cc\L	.
8DD/	8D/	.	8g/	.	8dd\	.
8EE-/	8E-/	.	8g/	.	8cc\	.
8EE/J	8En/J	.	8g/J	.	8b-\J	.
=4	=4	=4	=4	=4	=4	=4
!	!LO:TX:a:t=P:problem=mixed beam	!	!	!	!LO:TX:a:t=P:problem=mixed beam	!
8FF/L	8F\L	.	8f/L	.	8ff\L	.
!	!	!	!	!	!LO:TUP:b:t=problem:klamra łukowa	!
16FFF/L	16FF/L	.	16F/L	.	24f/L	.
.	.	.	.	.	24f/	.
16FFF/JJ	16FF/JJ	.	16F/JJ	.	.	.
.	.	.	.	.	24f/JJ	.
8FFF/L	8FF/L	.	8F/L	.	8f/L	.
8FFF/J	8FF/J	.	8F/J	.	8f/J	.
4FFF/	4FF/	.	4F/	.	4f/	.
!LO:TX:a:t=[segno]:problem=znak segno na kresce taktowej	!LO:TX:a:t=[segno]:problem=znak segno na kresce taktowej	!	!LO:TX:a:t=[segno]:problem=znak segno na kresce taktowej	!	!LO:TX:a:t=[segno]:problem=znak segno na kresce taktowej	!
=5||	=5||	=5||	=5||	=5||	=5||	=5||
*	*tremolo	*	*	*	*	*
*	*2\right	*	*	*	*	*
!	!	!	!	!	!	!LO:DY:t=p.
4BBB-/	(8dL 8B-\	p	8f/L	.	8ff\L	p
.	8f\	.	16b-/L	.	16bb-\L	.
.	.	.	16dd/JJ	.	16ddd\JJ	.
4BB-/	8d 8B-\	.	4ff\	.	4.fff\	.
.	8f\	.	.	.	.	.
4r	8d 8B-\	.	[4dd\	.	.	.
.	8f\J)	.	.	.	[8ddd\	.
=6	=6	=6	=6	=6	=6	=6
4E- 4EE-/	8r	.	16dd\LL]	.	16ddd\LL]	.
.	.	.	16ee-\	.	16eee-\	.
.	8e- 8c 8G\	.	16g\	.	16gg\	.
.	.	.	16dd\JJ	.	16ddd\JJ	.
*	*tremolo	*	*	*	*	*
4r	8e- 8c 8G\L	.	4.cc\	.	4.ccc\	.
.	8e- 8c 8G\	.	.	.	.	.
4r	8e- 8c 8G\	.	.	.	.	.
.	8e- 8c 8G\J	.	8b-\	.	8bb-\	.
!	!	!	!LO:LB:g=original	!	!LO:LB:g=original	!
=7	=7	=7	=7	=7	=7	=7
4FF/	(8e-L 8c 8A\	.	(8a\L	.	8aa\L	.
.	8F\	.	8b-\	.	(8bb-\	.
4FFF/	8e- 8c 8A\	.	8bn\	.	8bbn\)	.
.	8F\	.	8cc\J)	.	8ccc\J	.
4r	8e- 8c 8A\	.	8f/L	.	8ff\L	.
.	8F\J)	.	(16g/L	.	(16gg\L	.
.	.	.	16a/JJ)	.	16aa\JJ)	.
=8	=8	=8	=8	=8	=8	=8
8FF/L	8dL 8B- 8F\	>	8b-\L	.	8bb-\L	>
8AA-X/	8d 8Bn 8F\	.	8bn\	.	8bbn\	.
8EE-/	8c 8G\	.	8cc\	.	8ccc\	.
8DD/	8Bn 8A-X 8F\	.	8dd\	.	8ddd\	.
8CC/	8e- 8G\	.	8ee-\	.	8eee-\	.
8FF/J	8cJ 8A- 8F\	]	8a\J	.	8ccc\J	]
!LO:LB:g=original	!LO:LB:g=original	!	!	!	!	!
=9	=9	=9	=9	=9	=9	=9
4BBB-/	(8dL 8B-\	.	16dd\LL	.	16bb-\LL	.
.	.	.	16cc\	.	16aa\	.
.	8F\	.	16dd\	.	16bb-\	.
.	.	.	16ee-\JJ	.	16ccc\JJ	.
4BB-/	8d 8B-\	.	8ff\L	.	8ddd\L	.
.	8F\	.	16een\L	.	16ccc#X\L	.
.	.	.	16ff\JJ	.	16ddd\JJ	.
4r	8d 8B-\	.	16een\LL	.	16ccc#X\LL	.
.	.	.	16ff\	.	16ddd\	.
.	8F\J)	.	16gg\	.	16eee-\	.
.	.	.	16ff\JJ	.	16ddd\JJ	.
=10	=10	=10	=10	=10	=10	=10
4FFF/	(8e-L 8A\	.	16ff\LL	.	16ddd\LL	.
.	.	.	16ee-X\JJ	.	16cccn\JJ	.
.	8F\	.	4ee-\	.	4ccc\	.
4FF/	8e- 8A\	.	.	.	.	.
.	8F\	.	16ee-\LL	.	16ccc\LL	.
.	.	.	16dd\JJ	.	16bbn\JJ	.
4FFF/	8e- 8A\	.	16ee-\LL	.	16ccc\LL	.
.	.	.	16dd\	.	16bb\	.
.	8F\J)	.	16ee-\	.	16ccc\	.
.	.	.	16ff\JJ	.	16ddd\JJ	.
=11	=11	=11	=11	=11	=11	=11
4BBB-/	(8dL 8B-\	.	8dd\L	.	16bb-\LL	.
.	.	.	.	.	16ff\	.
.	8F\	.	16dd\L	.	16bb-\	.
.	.	.	16ee-\JJ	.	16ccc\JJ	.
4BB-/	8d 8B-\	.	8ff\L	.	8ddd\L	.
.	8F\	.	16een\L	.	16ccc#X\L	.
.	.	.	16ff\JJ	.	16ddd\JJ	.
4r	8d 8B-\	.	16een\LL	.	16cccn\LL	.
.	.	.	16ff\	.	16ddd\	.
!	!	!	!	!	!LO:TX:a:t=P:problem=nuty niewidoczne	!
.	8F\J)	.	16gg\	.	16eee-\yy	.
.	.	.	16ff\JJ	.	16ddd\JJyy	.
!	!	!	!LO:LB:g=original	!	!LO:LB:g=original	!
=12	=12	=12	=12	=12	=12	=12
4FFF/	(8e-L 8A\	.	16ff\LL	.	16ddd\LL	.
.	.	.	16ee-X\JJ	.	16cccn\JJ	.
.	8F\	.	4ee-\	.	4ccc\	.
4FF/	8e- 8A\	.	.	.	.	.
.	8F\	.	16ee-\LL	.	16ccc\LL	.
.	.	.	16dd\JJ	.	16bbn\JJ	.
4FFF/	8e- 8A\	.	16ee-\LL	.	16ccc\LL	.
.	.	.	16dd\	.	16bb\	.
.	8F\J)	.	16ee-\	.	16ccc\	.
.	.	.	16ff\JJ	.	16ddd\JJ	.
*	*Xtremolo	*	*	*	*	*
=13	=13	=13	=13	=13	=13	=13
!	!	!	!	!	!	!LO:DY:t=fp.
4DD/	4d 4B- 4F\	.	4dd 4b-\	.	8bb-\L	fp
.	.	.	.	.	16ddd\L	.
.	.	.	.	.	16ccc\JJ	.
8r	8r	.	8r	.	16bb-\LL	.
.	.	.	.	.	16aa\	.
8DD/L	8B-L 8F\	.	8b-L 8f/	.	16gg\	.
.	.	.	.	.	16ff\JJ	.
8DD/	8B- 8F\	.	8b- 8f/	.	16ee-\LL	.
.	.	.	.	.	16dd\	.
8DD/J	8B-J 8F\	.	8b-J 8f/	.	16cc\	.
.	.	.	.	.	16b-\JJ	.
=14	=14	=14	=14	=14	=14	=14
!	!	!	!	!	!	!LO:DY:t=fp.
4EE-/	4c 4G\	.	4.e-/	.	8g\L	fp
.	.	.	.	.	8cc\J	.
8r	8r	.	.	.	8ee-\L	.
8EE-/L	8cL 8G\	.	8ccL 8g/	.	8gg\	.
8EE-/	8c 8G\	.	8cc 8g/	.	8ccc\	.
8EE-/J	8cJ 8G\	.	8ccJ 8g/	.	8eee-\J	.
=15	=15	=15	=15	=15	=15	=15
4FF/	4c 4A\	.	4f 4e-/	.	8aa\L	.
.	.	.	.	.	16ggg\L	.
.	.	.	.	.	16fff\JJ	.
8r	8r	.	8r	.	16eeen\LL	.
.	.	.	.	.	16eee-X\	.
8FF/L	8cL 8A\	.	8fL 8e-/	.	16ccc\	.
.	.	.	.	.	16aa\JJ	.
8FF/	8c 8A\	.	8f 8e-/	.	16ff\LL	.
.	.	.	.	.	16een\	.
8FF/J	8cJ 8A\	.	8fJ 8e-/	.	16ee-X\	.
.	.	.	.	.	16cc\JJ	.
=16	=16	=16	=16	=16	=16	=16
4GG 4BBB-/	8B-\L	.	8d/L	.	16dd\LL	.
.	.	.	.	.	16ff\	.
.	(8F\	.	8f/	.	16bb-\	.
.	.	.	.	.	16ddd\JJ	.
4FF 4FFF/	8A\)	.	8e-/	.	16bbn\LL	.
.	.	.	.	.	16ccc\	.
.	8F\J	.	8f/J	.	16ggg\	.
.	.	.	.	.	16fff\JJ	.
4BB- 4BBB-/	4B-\	.	4f 4d/	.	4bb\	.
=17:|!|:	=17:|!|:	=17:|!|:	=17:|!|:	=17:|!|:	=17:|!|:	=17:|!|:
!LO:N:vis=8	!LO:N:vis=8	!	!	!	!	!LO:DY:t=f.
8.FL 8.FF/	8.cL 8.A\	f	8a 8f'/	.	8ff'\	f
.	.	.	4a 4f'/	.	4ff'\	.
8.FJ 8.FF/	8.cJ 8.A\	.	.	.	.	.
!	!	!	!LO:TX:a:t=P:problem=pozostała część taktu niewidoczna	!	!	!
8FL 8FF/	8cL 8A 8F'\	.	4ryy	.	8ff'\L	.
8En 8EEn/	8c 8G'\	.	.	.	8gg'\	.
8E-XJ 8EE-X/	8cJ 8A'\	.	8ryy	.	8aa'\J	.
!LO:LB:g=original	!LO:LB:g=original	!	!LO:LB:g=original	!	!LO:LB:g=original	!
=18	=18	=18	=18	=18	=18	=18
8DL 8DD/	8B-L 8F\	.	8b-\L	.	8bb-\L	.
8AAJ 8AAA/	8cJ 8F'\	.	8cc\J	.	8ccc\J	.
4BB- 4BBB-/	4d 4F\	.	4.dd\	.	4.ddd\	.
4r	4r	.	.	.	.	.
!	!	!	!LO:N:vis=4	!	!	!
.	.	.	8r	.	(16bb-\LL	.
.	.	.	.	.	16gg\JJ)	.
=19	=19	=19	=19	=19	=19	=19
!	!	!LO:DY:t=p.	!	!	!LO:N:vis=16	!
4CC/	8r	p	8r	.	8.een\L	.
.	8e- 8B- 8G\	.	8cc 8b-/	.	.	.
!	!	!	!	!	!LO:TX:a:t=d	!
!	!	!	!	!	!LO:N:vis=16.	!
.	.	.	.	.	8.ee\J	.
*	*tremolo	*	*tremolo	*	*	*
4C/	8e- 8B- 8G\L	.	8cc 8b-/L	.	.	.
.	8e- 8B- 8G\	.	8cc 8b-/	.	16ddd\LL	.
.	.	.	.	.	16ccc\JJ	.
4r	8e- 8B- 8G\	.	8cc 8b-/	.	16bb-\LL	.
.	.	.	.	.	16aa\	.
.	8e- 8B- 8G\J	.	8cc 8b-/J	.	16bb-\	.
.	.	.	.	.	16gg\JJ	.
=20	=20	=20	=20	=20	=20	=20
!	!	!	!	!	!LO:N:vis=8	!
4FFF/	8r	.	8cc 8a/L	.	8.ff\L	.
.	8f 8c 8A\	.	8cc 8a/	.	.	.
.	.	.	.	.	8.ff\J	.
4FF/	8f 8c 8A\L	.	8cc 8a/	.	.	.
.	8f 8c 8A\	.	8cc 8a/	.	16ccc\LL	.
.	.	.	.	.	16bbn\JJ	.
4FFF/	8f 8c 8A\	.	8cc 8a/	.	16ddd\LL	.
.	.	.	.	.	16ccc\	.
.	8f 8c 8A\J	.	8cc 8a/J	.	16bb\	.
.	.	.	.	.	16aa\JJ	.
=21	=21	=21	=21	=21	=21	=21
!	!	!	!	!	!LO:N:vis=8	!
4CC/	8r	.	8cc 8b-/L	.	8.gg\L	.
.	8e 8B- 8G\	.	8cc 8b-/	.	.	.
!	!	!	!	!	!LO:TX:a:t=d	!
.	.	.	.	.	8.gg\J	.
4C/	8e 8B- 8G\L	.	8cc 8b-/	.	.	.
.	8e 8B- 8G\	.	8cc 8b-/	.	16bb-\LL	.
.	.	.	.	.	16aa\JJ	.
4CC/	8e 8B- 8G\	.	8cc 8b-/	.	16ccc\LL	.
.	.	.	.	.	16bb-\	.
.	8e 8B- 8G\J	.	8cc 8b-/J	.	16aa\	.
.	.	.	.	.	16gg\JJ	.
*	*Xtremolo	*	*Xtremolo	*	*	*
=22	=22	=22	=22	=22	=22	=22
!	!	!LO:DY:t=ff.	!LO:N:vis=8	!	!	!LO:DY:t=f.
8.FF/L	8.F\L	ff	8.aL 8.f/	.	8.ffL 8.cc\	f
16FF/K	16F\K	.	16aK 16f/	.	16ffK 16cc\	.
!	!	!	!LO:N:vis=8	!	!	!
8.AA/	8.A\	.	8.a 8.f/	.	8.ff 8.cc\	.
16AA/K	16A\K	.	16aK 16f/	.	16ffK 16cc\	.
!	!	!	!LO:N:vis=8	!	!	!
8.CC/	8.c\	.	8.a 8.f/	.	8.ff 8.cc\	.
16CC/Jk	16c\Jk	.	16aJk 16f/	.	16ffJk 16cc\	.
=23	=23	=23	=23	=23	=23	=23
!	!	!LO:DY:t=fp.	!	!	!	!
4FF/	4e-X 4c 4A\	fp	4a 4f/	.	4ff 4cc 4a\	p
4F\	8r	.	8r	.	2fffTT\	.
!	!	!	!	!LO:DY:t=fp.	!	!
.	8cL 8A\	.	8ccL 8a/	fp	.	.
4r	(8d-X 8B-\	.	(8dd-X 8b-/	.	.	.
.	8dnJ 8Bn\)	.	8ddnJ 8bn/)	.	.	.
=24	=24	=24	=24	=24	=24	=24
4FFF/	8dnL 8Bn\	.	4dd 4bn\	.	2.fffTTT\	.
.	8e- 8c\	.	.	.	.	.
4FF/	8c 8A\	.	8ee-L 8cc\	.	.	.
.	8d-X 8B-X\	.	8cc 8a\	.	.	.
4r	8dnJ 8Bn\	.	8dd-X 8b\	.	.	.
.	8r	.	8ddnJ 8bn\	.	.	.
!LO:LB:g=original	!LO:LB:g=original	!	!	!	!	!
=25	=25	=25	=25	=25	=25	=25
4FF/	8e-L 8c\	.	8ee-L 8cc\	.	2.fffTTT\	.
.	8d 8Bn\	.	8dd 8bn\	.	.	.
4F\	(8e- 8c\	.	8ee- 8cc\	.	.	.
.	8d 8B\	.	8dd 8b\	.	.	.
4FF/	8e- 8c\)	.	8ee- 8cc\	.	.	.
.	8dJ 8B\	.	8ddJ 8b\	.	.	.
=26	=26	=26	=26	=26	=26	=26
!	!LO:TX:b:i:t=riter.	!	!	!	!	!
4FF 4FFF/	4e- 4c\	.	4ee- 4cc\	.	16eeen\LL	.
.	.	.	.	.	16fff\	.
.	.	.	.	.	16aaa\	.
.	.	.	.	.	16ggg\JJ	.
!	!	!	!LO:TX:a:t=P:problem=dalsza część taktu niewidoczna	!	!	!
4r	4r	.	2ryy	.	16fff\LL	.
.	.	.	.	.	16ggg\	.
!	!	!	!	!	!LO:TX:b:t=rit	!
.	.	.	.	.	16ccc\	.
.	.	.	.	.	16aa\JJ	.
!	!LO:TX:b:t=al Segno.	!	!	!	!LO:TX:a:t=P:problem=dalsza część taktu niewidoczna	!
4r	4r	.	.	.	4ryy	.
!LO:TX:a:t=[segno]:problem=znak segno na kresce taktowej	!LO:TX:a:t=[segno]:problem=znak segno na kresce taktowej	!	!	!	!	!
!LO:PB:g=original	!LO:PB:g=original	!	!	!	!	!
!	!	!	!LO:PB:g=original	!	!LO:PB:g=original	!
=27	=27	=27	=27	=27	=27	=27
*	*clefG2	*	*	*	*	*
*k[b-e-a-]	*k[b-e-a-]	*	*k[b-e-a-]	*	*k[b-e-a-]	*
*M3/4	*M3/4	*	*M3/4	*	*M3/4	*
!	!LO:TX:a:t=Trio:problem=dopisane na niebiesko	!LO:DY:t=p.	!LO:TX:a:t=2.	!	!LO:TX:a:t=2.	!
!	!	!	!LO:N:vis=0	!	!LO:N:vis=0	!
2E- 2EE-/	(8gL 8e-/	p	1.r	.	1.r	.
.	8B-/	.	.	.	.	.
.	8g 8e-/	.	.	.	.	.
.	8B-/	.	.	.	.	.
4r	8b- 8g/)	.	.	.	.	.
.	8B-/J	.	.	.	.	.
=28	=28	=28	=28	=28	=28	=28
2E- 2EE-/	8b-L 8g/	.	.	.	.	.
.	8B-/	.	.	.	.	.
.	8b- 8g/	.	.	.	.	.
.	8B-/	.	.	.	.	.
4r	8g 8e-/	.	.	.	.	.
.	8B-/J	.	.	.	.	.
=29	=29	=29	=29	=29	=29	=29
*	*	*	*	*	*8va	*
!	!	!	!	!	!LO:TX:b:i:t=dol.	!LO:DY:rj:t=p.
2BB- 2BBB-/	8a-L 8d/	.	2.r	.	16eeen\LL	p
.	.	.	.	.	16fff\	.
.	8B-/	.	.	.	16ggg\	.
.	.	.	.	.	16fff\JJ	.
.	8a- 8d/	.	.	.	16eee-X\LL	.
.	.	.	.	.	16ddd\	.
.	8B-/	.	.	.	16ccc\	.
.	.	.	.	.	16bb-\JJ	.
4BB- 4BBB-/	8a- 8d/	.	.	.	16aan/LL	.
.	.	.	.	.	16bb-/	.
.	8B-/J	.	.	.	16ccc/	.
.	.	.	.	.	16ddd/JJ	.
=30	=30	=30	=30	=30	=30	=30
4E- 4EE-/	8gL 8e-/	.	2.r	.	16eee-\LL	.
.	.	.	.	.	16ddd\	.
.	8B-/	.	.	.	16eee-\	.
.	.	.	.	.	16bb-\JJ	.
4BB- 4BBB-/	8a- 8d/	.	.	.	16fff\LL	.
.	.	.	.	.	16eeen\	.
.	8B-/	.	.	.	16fff\	.
.	.	.	.	.	16bb-\JJ	.
4E- 4EE-/	8g 8e-/	.	.	.	4ggg 4fff\	.
.	8B-/J	.	.	.	.	.
=31	=31	=31	=31	=31	=31	=31
4G 4GG/	8r	.	(2bb-\	.	(2bbb-\	.
.	8b-L 8e- 8B-/	.	.	.	.	.
4r	8b- 8e- 8B-/	.	.	.	.	.
.	8b-J 8e- 8B-/	.	.	.	.	.
4G 4GG/	8r	.	4bbn\)	.	4bbbn\)	.
.	8bn 8e- 8Bn/	.	.	.	.	.
=32	=32	=32	=32	=32	=32	=32
*^	*	*	*	*	*	*
!	!	!	!	!LO:N:vis=4	!	!	!
2ryy	4A- 4AA-\	8r	.	4.ddd\	.	4.dddd\	.
.	.	8c/L	.	.	.	.	.
.	4r	8cc 8e-/	.	.	.	.	.
.	.	8c/	.	8ccc\	.	8cccc\	.
4D 4GG\	4G/	8b- 8e-/	.	16aan\LL	.	16aaan\LL	.
.	.	.	.	16bb-\	.	16bbb-\	.
.	.	8B-/J	.	16ccc\	.	16cccc\	.
.	.	.	.	16bb-\JJ	.	16bbb-\JJ	.
*v	*v	*	*	*	*	*	*
=33	=33	=33	=33	=33	=33	=33
4F 4FF/	8b-L 8d/	.	8bb-\L	.	8bbb-\L	.
.	8B-/	.	8aa-X\	.	8aaa-X\	.
4D 4DD/	8a- 8f/	.	8gg\	.	8ggg\	.
.	8B-/J	.	8ff\J	.	8fff\J	.
4E- 4EE-/	8g 8e-/L	.	16gg\LL	.	(16ggg\LL	.
.	.	.	16aa-\	.	16aaa-\	.
.	8B-/J	.	16aan\	.	16aaan\	.
.	.	.	16bb-\JJ	.	16bbb-\JJ)	.
!LO:LB:g=original	!LO:LB:g=original	!	!	!	!	!
=34	=34	=34	=34	=34	=34	=34
2BB- 2BBB-/	4g 4e- 4B-/	.	(4ee- 4b-\	.	4ggg\	.
.	4f 4d 4B-/	.	4dd 4b-\)	.	16fff\LL	.
.	.	.	.	.	(16bb-\	.
.	.	.	.	.	16ccc\	.
.	.	.	.	.	16ddd\	.
4r	4r	.	4r	.	16eee-\	.
.	.	.	.	.	16eeen\	.
.	.	.	.	.	16fff\	.
.	.	.	.	.	16fff#X\JJ)	.
!	!	!	!LO:LB:g=original	!	!LO:LB:g=original	!
=35	=35	=35	=35	=35	=35	=35
2E- 2EE-/	8gL 8e-/	.	4.gg\	.	4.ggg\	.
.	(8B-/	.	.	.	.	.
.	8g 8e-/	.	.	.	.	.
.	8B-/	.	8aa-\L	.	8aaa-\L	.
4r	8b- 8g/)	.	8aan\	.	(8aaan\	.
.	8B-/J	.	8bb-\J	.	8bbb-\J)	.
=36	=36	=36	=36	=36	=36	=36
2E- 2EE-/	8b-L 8g/	.	4.ee-\	.	4.eee-\	.
.	8B-/	.	.	.	.	.
.	8b- 8g/	.	.	.	.	.
.	8B-/	.	8ff\L	.	8fff\L	.
4r	8g 8e-/	.	8ff#X\	.	(8fff#X\	.
.	8B-/J	.	8gg\J	.	8ggg\J)	.
=37	=37	=37	=37	=37	=37	=37
2BB- 2BBB-/	8a-L 8d/	.	16een\LL	.	16eeen\LL	.
.	.	.	16ffn\	.	16fffn\	.
.	8B-/	.	16gg\	.	16ggg\	.
.	.	.	16ff\JJ	.	16fff\JJ	.
.	8a- 8d/	.	16ee-X\LL	.	16eee-X\LL	.
.	.	.	16dd\	.	16ddd\	.
.	8B-/	.	16cc\	.	16ccc\	.
.	.	.	16b-\JJ	.	16bb-\JJ	.
4BB- 4BBB-/	8a- 8d/	.	16an\LL	.	16aan\LL	.
.	.	.	16b-\	.	16bb-\	.
.	8B-/J	.	16cc\	.	16ccc\	.
.	.	.	16dd\JJ	.	16ddd\JJ	.
=38	=38	=38	=38	=38	=38	=38
4E- 4EE-/	8gL 8e-/	.	8gg\L	.	16eee-\LL	.
.	.	.	.	.	16ddd\	.
.	8B-/	.	8b-\	.	16eee-\	.
.	.	.	.	.	16bb-\JJ	.
4BB- 4BBB-/	8a- 8d/	.	8dd\	.	16fff\LL	.
.	.	.	.	.	16eeen\	.
.	8B-/	.	8b-\J	.	16fff\	.
.	.	.	.	.	16bb-\JJ	.
4E- 4EE-/	8g 8e-/	.	4ee-\	.	(8ggg\L	.
.	8B-/J	.	.	.	8aaa-\J)	.
=39	=39	=39	=39	=39	=39	=39
2G 2GG/	8r	f	(2bb-\	.	(2bbb-\	.
.	8b-L 8e- 8B-/	.	.	.	.	.
.	8b- 8e- 8B-/	.	.	.	.	.
.	8b-J 8e- 8B-/	.	.	.	.	.
4G 4GG/	8r	.	4dd-X\)	.	4ddd-X\)	.
.	8en 8B-/	.	.	.	.	.
=40	=40	=40	=40	=40	=40	=40
2A- 2AA-/	8r	.	8cc 8a-\	.	8ccc\L	.
.	8fL 8c/	.	4cc 4a-'\	.	8.cccc\J	.
.	8f 8c/	.	.	.	.	.
.	.	.	.	.	16bbb-\LL	.
.	8fJ 8c/	.	8ccL 8a-\	.	16aaa-\	.
.	.	.	.	.	16ggg\JJ	.
4A- 4AA-/	8r	.	8cc 8a-\	.	16fff\LL	.
.	.	.	.	.	16eee-\	.
!	!LO:N:vis=4	!	!	!	!	!
.	8e- 8c/	.	8ccJ 8a-\	.	16ddd\	.
.	.	.	.	.	16ccc\JJ	.
*	*clefF4	*	*	*	*	*
=41	=41	=41	=41	=41	=41	=41
4BB-/	4d 4B- 4A-\	.	4b- 4a-/	.	(16bb-\LL	.
.	.	.	.	.	16ddd\	.
.	.	.	.	.	16fff\	.
.	.	.	.	.	16eee-\JJ)	.
2BB- 2BBB-/	8r	.	8r	.	(16ddd\LL	.
.	.	.	.	.	16fff\	.
.	8dL 8B- 8A-\	.	8b-L 8a-/	.	16aaa-\	.
.	.	.	.	.	16ggg\JJ)	.
.	8d 8B- 8A-\	.	8b- 8a-/	.	(16fff\LL	.
.	.	.	.	.	16aaa-\	.
.	8dJ 8B- 8A-\	.	8b-J 8a-/	.	16dddd\	.
.	.	.	.	.	16cccc\JJ)	.
!LO:LB:g=original	!LO:LB:g=original	!	!LO:LB:g=original	!	!LO:LB:g=original	!
=42	=42	=42	=42	=42	=42	=42
!	!	!LO:DY:t=p.	!	!	!	!
4E- 4EE-/	8dL 8B- 8A-\	p	8b-L 8a-/	.	16bbb-\LL	.
.	.	.	.	.	16ggg\	.
.	8dJ 8B- 8A-\	.	8b-J 8a-/	.	16fff\	.
.	.	.	.	.	16ddd\JJ	.
!	!	!	!	!	!LO:TX:t=d	!
4BB- 4BBB-/	8r	.	8r	.	8fff\L	.
.	8d 8B- 8A-\	.	8b- 8a-/	.	8ggg\J	.
4E- 4EE-/	4e- 4B- 4G\	.	4b- 4g/	.	4eee-\	.
*	*	*	*	*	*X8va	*
=43:|!|:	=43:|!|:	=43:|!|:	=43:|!|:	=43:|!|:	=43:|!|:	=43:|!|:
!	!	!LO:DY:t=ff.	!	!	!LO:TX:a:i:t=loco.	!LO:DY:t=ff.
4BB- 4BBB-/	8dL 8B- 8F\	ff	8b-\L	.	8bb-L 8ff 8dd\	ff
!	!LO:TUP:a:t=problem:klamra łukowa	!	!	!	!	!
.	24B-\L	.	16b-\L	.	16bb-L 16ff 16dd\	.
.	24B-\	.	.	.	.	.
.	.	.	16b-\JJ	.	16bb-JJ 16ff 16dd\	.
.	24B-\JJ	.	.	.	.	.
8r	8B-\L	.	8b-\L	.	8bb-L 8ff 8dd\	.
8BB-L 8BBB-/	8B-\	.	8b-\	.	8bb- 8ff 8dd\	.
8BB- 8BBB-/	8c 8A-\	.	8b-\	.	8ccc 8aan 8ff\	.
8BB-J 8BBB-/	8dJ 8B- 8A-\	.	8ddJ 8b-\	.	8dddJ 8ff\	.
=44	=44	=44	=44	=44	=44	=44
!	!	!	!	!	!	!LO:DY:t=f.
4BB- 4BBB-/	8e-L 8B- 8G-X\	f	8ee-L 8b-\	.	8eee-L 8bb- 8gg-X\	f
!	!LO:TUP:a:t=problem:klamra łukowa	!	!	!	!	!
.	24B-\L	.	16ee-L 16b-\	.	16eee-L 16bb- 16gg-\	.
.	24B-\	.	.	.	.	.
.	.	.	16ee-JJ 16b-\	.	16eee-JJ 16bb- 16gg-\	.
.	24B-\JJ	.	.	.	.	.
8r	8B-\L	.	8ee-L 8b-\	.	8eee-L 8bb- 8gg-\	.
8BB-L 8BBB-/	8B-\	.	8ee- 8b-\	.	8eee-J 8bb- 8gg-\	.
8BB- 8BBB-/	8f 8d 8B-\	.	8ff 8dd 8b-\	.	8fffL 8ddd 8bb-\	.
8BB-J 8BBB-/	8fJ 8d 8B-\	.	8ffJ 8dd 8b-\	.	8fffJ 8ddd 8bb-\	.
=45	=45	=45	=45	=45	=45	=45
*	*	*	*	*	*8va	*
4BB- 4BBB-/	8g-XL 8e- 8c 8An\	.	8gg-XL 8ee-\	.	8ggg-XL 8eee- 8ccc 8aan\	.
!	!LO:TUP:a:t=problem:klamra łukowa	!	!	!	!	!
.	24B-\L	.	16gg-L 16ee-\	.	16ggg-L 16eee- 16ccc 16aa\	.
.	24B-\	.	.	.	.	.
.	.	.	16gg-JJ 16ee-\	.	16ggg-JJ 16eee- 16ccc 16aa\	.
.	24B-\JJ	.	.	.	.	.
8ryy	8B-\L	.	8gg-L 8ee-\	.	8ggg-L 8eee- 8ccc 8aa\	.
8BB-L 8BBB-/	8B-\	.	8gg- 8ee-\	.	8ggg- 8eee- 8ccc 8aa\	.
8BB- 8BBB-/	8b- 8g-X 8e-\	.	8aan 8gg-X 8ee-\	.	8aaan 8ggg-X 8eee- 8ccc\	.
8BB-J 8BBB-/	8b-J 8g- 8e-\	.	8aaJ 8gg- 8ee-\	.	8aaaJ 8ggg- 8eee- 8ccc\	.
*	*clefG2	*	*	*	*	*
=46	=46	=46	=46	=46	=46	=46
!	!LO:TX:b:i:t=riter.	!	!	!	!	!LO:DY:t=p.
4BB-/	2b- 2f 2d 2B-/	.	4bb-\	.	8bbb-L 8fff 8dddn\	p
.	.	.	.	.	16bb-\L	.
.	.	.	.	.	16ddd\JJ	.
!	!	!	!	!	!LO:TX:b:i:t=ritard&colon;	!
4BBB-/	.	.	4r	.	(16fff\LL	.
.	.	.	.	.	16aaa-\	.
.	.	.	.	.	16cccc\	.
.	.	.	.	.	16bbb-\JJ)	.
4r	4r	.	4r	.	(16ggg\LL	.
.	.	.	.	.	16aaa-\	.
.	.	.	.	.	16eeen\	.
.	.	.	.	.	16fff\JJ)	.
=47	=47	=47	=47	=47	=47	=47
!	!	!LO:DY:t=p.	!	!	!	!
2E- 2EE-/	8gL 8e-/	p	4.gg\	.	4.ggg\	p
.	(8B-/	.	.	.	.	.
.	8g 8e-/	.	.	.	.	.
.	8B-/	.	(8aa-\L	.	(8aaa-\L	.
4r	8b- 8g/	.	8aan\	.	8aaan\	.
.	8B-/J)	.	8bb-\J)	.	8bbb-\J)	.
!	!	!	!LO:LB:g=original	!	!LO:LB:g=original	!
=48	=48	=48	=48	=48	=48	=48
2E- 2EE-/	(8b-L 8g/	.	4.ee-\	.	4.eee-\	.
.	8B-/	.	.	.	.	.
.	8b- 8g/	.	.	.	.	.
.	8B-/	.	(8ff\L	.	(8fff\L	.
4r	8g 8e-/)	.	8ff#X\	.	8fff#X\	.
.	8B-/J	.	8gg\J)	.	8ggg\J)	.
=49	=49	=49	=49	=49	=49	=49
2BB- 2BBB-/	8a-L 8d/	.	16een\LL	.	16eeen\LL	.
.	.	.	16ff\	.	16fff\	.
.	8B-/	.	16gg\	.	16ggg\	.
.	.	.	16ff\JJ	.	16fff\JJ	.
.	8a- 8d/	.	16ee-X\LL	.	16eee-X\LL	.
.	.	.	16dd\	.	16ddd\	.
.	8B-/	.	16cc\	.	16ccc\	.
.	.	.	16b-\JJ	.	16bb-\JJ	.
4BB- 4BBB-/	8a- 8d/	.	16an\LL	.	16aan\LL	.
.	.	.	16b-\	.	16bb-\	.
.	8B-/J	.	16cc\	.	16ccc\	.
.	.	.	16dd\JJ	.	16ddd\JJ	.
!LO:LB:g=original	!LO:LB:g=original	!	!	!	!	!
=50	=50	=50	=50	=50	=50	=50
4E- 4EE-/	8gL 8e-/	.	8gg\L	.	16eee-\LL	.
.	.	.	.	.	16ddd\	.
.	8B-/	.	8b-\	.	16eee-\	.
.	.	.	.	.	16bb-\JJ	.
4BB- 4BBB-/	8a- 8d/	.	8dd\	.	16fff\LL	.
.	.	.	.	.	16eeen\	.
.	8B-/	.	8b-\J	.	16fff\	.
.	.	.	.	.	16bb-\JJ	.
4E- 4EE-/	8g 8e-/	.	4ee-\	.	8ggg\L	.
.	8B-/J	.	.	.	8aaa-\J	.
*	*	*	*	*	*X8va	*
=51	=51	=51	=51	=51	=51	=51
!	!	!LO:DY:rj	!	!	!	!
2G 2GG/	8r	f	2bb-\	.	(2bb-\	.
.	8b-L 8e- 8B-/	.	.	.	.	.
.	8b- 8e- 8B-/	.	.	.	.	.
.	8b-J 8e- 8B-/	.	.	.	.	.
4G 4GG/	8r	.	4dd-X\	.	4dd-X\)	f
.	8en 8B-/	.	.	.	.	.
=52	=52	=52	=52	=52	=52	=52
2G 2GG/	8r	.	8cc 8a-\	.	8cc\L	.
.	8fL 8c/	.	4cc 4a-\	.	8.ccc\J	.
.	8f 8c/	.	.	.	.	.
.	.	.	.	.	16bb-\LL	.
.	8fJ 8c/	.	8ccL 8a-\	.	16aa-\	.
.	.	.	.	.	16gg\JJ	.
4A- 4BB-/	8r	.	8cc 8a-\	.	16ff\LL	.
.	.	.	.	.	16ee-\	.
!	!LO:N:vis=4	!	!	!	!	!
.	8f 8c/	.	8ccJ 8a-\	.	16dd\	.
.	.	.	.	.	16cc\JJ	.
*	*clefF4	*	*	*	*	*
=53	=53	=53	=53	=53	=53	=53
!	!	!	!	!	!	!LO:DY:t=p.
4BB-/	4d 4B- 4A-\	.	4b- 4a-\	.	16b-\LL	p
.	.	.	.	.	16dd\	.
.	.	.	.	.	16ff\	.
!	!	!	!	!	!LO:TX:a:t=e	!
.	.	.	.	.	16ee-\JJ	.
2BB- 2BBB-/	8r	.	8r	.	(16dd\LL	.
.	.	.	.	.	16ff\	.
.	8dL 8B- 8A-\	.	8b-L 8a-\	.	16aa-\	.
.	.	.	.	.	16gg\JJ)	.
.	8d 8B- 8A-\	.	8b- 8a-\	.	16ff\LL	.
.	.	.	.	.	16aa-\	.
.	8dJ 8B- 8A-\	.	8ccJ 8a-\	.	16ddd\	.
.	.	.	.	.	16ccc\JJ	.
=54	=54	=54	=54	=54	=54	=54
4E- 4EE-/	8dL 8B- 8A-\	.	8b-L 8a-\	.	16bb-\LL	.
.	.	.	.	.	16aa-\	.
.	8dJ 8B- 8A-\	.	8b-J 8a-\	.	16ff\	.
.	.	.	.	.	16dd\JJ	.
!	!	!	!LO:TX:a:t=P:problem=dalsza część taktu niewidoczna	!	!LO:TX:a:t=d	!
4BB- 4BBB-/	8r	.	2ryy	.	8ff\L	.
.	8d 8B- 8A-\	.	.	.	8gg\J	.
!	!	!	!	!	!LO:TX:a:t=P:problem=dalsza część taktu niewidoczna	!
4E- 4EE-/	4e- 4B- 4G\	.	.	.	4ryy	.
=55:|!	=55:|!	=55:|!	=55:|!	=55:|!	=55:|!	=55:|!
*-	*-	*-	*-	*-	*-	*-
!!!system-decoration: {s1,s2}{s3,s4}
!!!ENC: Marta Lawrence
!!!END: 2020-11-29
!!!ENC: Berenika Jozajtis
!!!END: 2020-06-12
!!!YEC: Copyright 2022 Narodowy Instytut Fryderyka Chopina (https://polishscores.org)
!!!YEM: Licence CC BY 4.0 (https://creativecommons.org/licenses/by/4.0)
